Numix-GalliumOS/48/notifications/notification-display-brightness-off.svg

<?xml version="1.0" encoding="UTF-8" standalone="no"?>
<svg
   xmlns:dc="http://purl.org/dc/elements/1.1/"
   xmlns:cc="http://creativecommons.org/ns#"
   xmlns:rdf="http://www.w3.org/1999/02/22-rdf-syntax-ns#"
   xmlns:svg="http://www.w3.org/2000/svg"
   xmlns="http://www.w3.org/2000/svg"
   xmlns:sodipodi="http://sodipodi.sourceforge.net/DTD/sodipodi-0.dtd"
   xmlns:inkscape="http://www.inkscape.org/namespaces/inkscape"
   width="48"
   viewBox="0 0 48 48"
   height="48"
   id="svg2"
   version="1.1"
   inkscape:version="0.91 r"
   sodipodi:docname="notification-display-brightness-off.svg">
  <metadata
     id="metadata46">
    <rdf:RDF>
      <cc:Work
         rdf:about="">
        <dc:format>image/svg+xml</dc:format>
        <dc:type
           rdf:resource="http://purl.org/dc/dcmitype/StillImage" />
        <dc:title></dc:title>
      </cc:Work>
    </rdf:RDF>
  </metadata>
  <sodipodi:namedview
     pagecolor="#ffffff"
     bordercolor="#666666"
     borderopacity="1"
     objecttolerance="10"
     gridtolerance="10"
     guidetolerance="10"
     inkscape:pageopacity="0"
     inkscape:pageshadow="2"
     inkscape:window-width="1366"
     inkscape:window-height="747"
     id="namedview44"
     showgrid="true"
     inkscape:zoom="11.961483"
     inkscape:cx="1.6814628"
     inkscape:cy="23.313698"
     inkscape:window-x="0"
     inkscape:window-y="21"
     inkscape:window-maximized="1"
     inkscape:current-layer="svg2">
    <inkscape:grid
       type="xygrid"
       id="grid3023" />
  </sodipodi:namedview>
  <defs
     id="defs4">
    <clipPath
       id="clipPath6">
      <rect
         height="6.375"
         width="3.825"
         y="220.75"
         x="26.85"
         id="rect8"
         style="color:#bebebe;fill:#bebebe" />
    </clipPath>
    <clipPath
       id="clipPath10">
      <rect
         height="5.2160001"
         width="2.898"
         y="221.33"
         x="26.966"
         id="rect12"
         style="color:#bebebe;fill:#bebebe" />
    </clipPath>
    <clipPath
       id="clipPath14">
      <rect
         height="4.8740001"
         width="1.876"
         y="221.5"
         x="26.999001"
         id="rect16"
         style="color:#bebebe;fill:#bebebe" />
    </clipPath>
  </defs>
  <g
     id="g4104"
     transform="matrix(2.1805556,0,0,2.1805556,0.0138884,0.0138884)">
    <g
       id="g3822">
      <path
         sodipodi:nodetypes="sscscssssssscccssscccsssssssscscscscsssscccssccccccsscccsssscsc"
         inkscape:connector-curvature="0"
         id="rect8-1"
         d="M 10.4375,2 C 10.126152,2 9.875,2.251152 9.875,2.5625 l 0,2.662 c 0.362515,-0.068951 0.74257,-0.125 1.125,-0.125 0.393068,0 0.75248,0.052256 1.125,0.125 l 0,-2.662 C 12.125,2.251152 11.873848,2 11.5625,2 Z m -5,2.0625 C 5.2938396,4.0625017 5.1413282,4.1399218 5.03125,4.25 L 4.25,5.03125 c -0.2201564,0.2201564 -0.2201426,0.5923282 0,0.8125 L 6.131,7.725 C 6.5583252,7.1020051 7.0991994,6.5559846 7.725,6.131 7.131085,5.5366725 6.4367168,4.8429668 5.84375,4.25 5.7336754,4.1399174 5.5811604,4.0624983 5.4375,4.0625 Z m 11.125,0.03125 c -0.148086,-1e-7 -0.296164,0.046178 -0.40625,0.15625 L 14.275,6.131 c 0.625265,0.426575 1.166935,0.9709121 1.594,1.594 C 16.463327,7.131085 17.157033,6.4367168 17.75,5.84375 17.860083,5.7336754 17.937502,5.5811604 17.9375,5.4375 17.937498,5.2938396 17.860078,5.1413282 17.75,5.03125 L 16.96875,4.25 C 16.858672,4.1399218 16.710586,4.0937501 16.5625,4.09375 Z m -14,5.78125 C 2.251152,9.875 2,10.126152 2,10.4375 l 0,1.125 c 0,0.311348 0.251152,0.5625 0.5625,0.5625 l 2.662,0 C 5.1561719,11.764931 5.0995,11.37915 5.0995,11 c 0,-0.389697 0.05291,-0.75498 0.125,-1.125 z m 14.213,0 c 0.07267,0.37002 0.125,0.735303 0.125,1.125 0,0.37915 -0.05612,0.764931 -0.125,1.125 l 2.662,0 C 19.748848,12.125 20,11.873848 20,11.5625 l 0,-1.125 C 20,10.126152 19.748848,9.875 19.4375,9.875 Z M 6.131,14.275 4.25,16.15625 c -0.220149,0.220165 -0.220156,0.592344 0,0.8125 L 5.03125,17.75 c 0.220156,0.220156 0.561125,0.220189 0.78125,0 C 6.4174957,17.155535 7.1242456,16.465435 7.725,15.869 7.0986058,15.446276 6.5585134,14.896067 6.131,14.275 Z m 9.707,0 c -0.42548,0.614207 -0.942686,1.173445 -1.563,1.594 l 1.88125,1.881 c 0.220165,0.220149 0.592344,0.220156 0.8125,0 L 17.75,16.96875 c 0.220156,-0.220156 0.220189,-0.561125 0,-0.78125 -0.599614,-0.610236 -1.310382,-1.306562 -1.912,-1.9125 z m -5.963,2.5005 0,2.662 C 9.875,19.748848 10.126152,20 10.4375,20 l 1.125,0 c 0.311348,0 0.5625,-0.251152 0.5625,-0.5625 l 0,-2.662 c -0.37252,0.07217 -0.731932,0.125 -1.125,0.125 -0.38243,0 -0.762485,-0.05659 -1.125,-0.125 z"
         style="color:#bebebe;fill:#ececec;fill-opacity:1" />
      <g
         id="g3782" />
      <g
         style="color:#bebebe;fill:#ececec;fill-opacity:1"
         id="g24"
         transform="matrix(-0.79544897,-0.79544897,0.79544897,-0.79544897,-144.90793,308.51064)" />
      <g
         style="color:#bebebe;fill:#ececec;fill-opacity:1"
         id="g24-6"
         transform="matrix(0.79544897,-0.79544897,0.79544897,0.79544897,-286.51064,-144.90793)" />
    </g>
    <path
       inkscape:connector-curvature="0"
       id="path3820-4"
       d="m 10.988236,5.0116733 c -3.314764,0 -6.000031,2.7135747 -6.000031,5.9999097 0,3.286335 2.685267,5.976744 6.000031,5.976744 3.314764,0 6.023559,-2.690409 6.023559,-5.976744 0,-3.2863348 -2.708795,-5.9999097 -6.023559,-5.9999097 z m 0,2.2239049 c 2.070013,0 3.741196,1.6775634 3.741196,3.7760048 0,2.098442 -1.671183,3.752839 -3.741196,3.752839 -2.070013,0 -3.741196,-1.654398 -3.741196,-3.752839 0,-2.0984412 1.671183,-3.7760048 3.741196,-3.7760048 z"
       style="color:#000000;font-style:normal;font-variant:normal;font-weight:normal;font-stretch:normal;font-size:medium;line-height:normal;font-family:Sans;-inkscape-font-specification:Sans;text-indent:0;text-align:start;text-decoration:none;text-decoration-line:none;letter-spacing:normal;word-spacing:normal;text-transform:none;direction:ltr;block-progression:tb;writing-mode:lr-tb;baseline-shift:baseline;text-anchor:start;display:inline;overflow:visible;visibility:visible;fill:#ececec;fill-opacity:1;stroke:none;stroke-width:3.01164269;marker:none;enable-background:accumulate" />
  </g>
</svg>

<svg xmlns="http://www.w3.org/2000/svg" viewBox="0 0 48 48">
 <g transform="matrix(2.1805556,0,0,2.1805556,0.0138884,0.0138884)">
  <g>
   <path d="m 10.438 2 c -0.311 0 -0.563 0.251 -0.563 0.563 l 0 2.662 c 0.363 -0.069 0.743 -0.125 1.125 -0.125 0.393 0 0.752 0.052 1.125 0.125 l 0 -2.662 c 0 -0.311 -0.251 -0.563 -0.563 -0.563 m -6.125 2.063 c -0.144 0 -0.296 0.077 -0.406 0.188 l -0.781 0.781 c -0.22 0.22 -0.22 0.592 0 0.813 l 1.881 1.881 c 0.427 -0.623 0.968 -1.169 1.594 -1.594 -0.594 -0.594 -1.288 -1.288 -1.881 -1.881 -0.11 -0.11 -0.263 -0.188 -0.406 -0.188 m 11.125 0.031 c -0.148 0 -0.296 0.046 -0.406 0.156 l -1.881 1.881 c 0.625 0.427 1.167 0.971 1.594 1.594 c 0.594 -0.594 1.288 -1.288 1.881 -1.881 0.11 -0.11 0.188 -0.263 0.188 -0.406 0 -0.144 -0.077 -0.296 -0.188 -0.406 l -0.781 -0.781 c -0.11 -0.11 -0.258 -0.156 -0.406 -0.156 m -14 5.781 c -0.311 0 -0.563 0.251 -0.563 0.563 l 0 1.125 c 0 0.311 0.251 0.563 0.563 0.563 l 2.662 0 c -0.068 -0.36 -0.125 -0.746 -0.125 -1.125 c 0 -0.39 0.053 -0.755 0.125 -1.125 z m 14.213 0 c 0.073 0.37 0.125 0.735 0.125 1.125 0 0.379 -0.056 0.765 -0.125 1.125 l 2.662 0 c 0.311 0 0.563 -0.251 0.563 -0.563 l 0 -1.125 c 0 -0.311 -0.251 -0.563 -0.563 -0.563 m -13.307 4.4 -1.881 1.881 c -0.22 0.22 -0.22 0.592 0 0.813 l 0.781 0.781 c 0.22 0.22 0.561 0.22 0.781 0 c 0.605 -0.594 1.312 -1.285 1.912 -1.881 -0.626 -0.423 -1.166 -0.973 -1.594 -1.594 m 9.707 0 c -0.425 0.614 -0.943 1.173 -1.563 1.594 l 1.881 1.881 c 0.22 0.22 0.592 0.22 0.813 0 l 0.781 -0.781 c 0.22 -0.22 0.22 -0.561 0 -0.781 -0.6 -0.61 -1.31 -1.307 -1.912 -1.912 z m -5.963 2.501 0 2.662 c 0 0.311 0.251 0.563 0.563 0.563 l 1.125 0 c 0.311 0 0.563 -0.251 0.563 -0.563 l 0 -2.662 c -0.373 0.072 -0.732 0.125 -1.125 0.125 -0.382 0 -0.762 -0.057 -1.125 -0.125 z" style="fill:#ececec;fill-opacity:1;color:#bebebe"/>
  </g>
  <path d="m 10.988 5.01 c -3.315 0 -6 2.714 -6 6 0 3.286 2.685 5.977 6 5.977 3.315 0 6.02 -2.69 6.02 -5.977 0 -3.286 -2.709 -6 -6.02 -6 z m 0 2.224 c 2.07 0 3.741 1.678 3.741 3.776 0 2.098 -1.671 3.753 -3.741 3.753 -2.07 0 -3.741 -1.654 -3.741 -3.753 0 -2.098 1.671 -3.776 3.741 -3.776 z" style="visibility:visible;fill:#ececec;fill-opacity:1;stroke:none;display:inline;color:#000"/>
 </g>
</svg>
